packages/axiom-materials/src/icon_svgs/sina-weibo-mono.svg

<svg height="16" viewBox="0 0 16 16" width="16" xmlns="http://www.w3.org/2000/svg"><path d="m6.67321436 1.77056c.69177436-.01189744 1.13682051.41288205 1.15388718 1.10802051.00984615.40073846-.08024616.80393846-.13546667 1.29731282.20644103-.048.39835898-.0704.57337436-.13702564.71942564-.27388718 1.44968205-.4896 2.23031797-.4254359 1.0377025.08525129 1.4752.71991795 1.1974564 1.71913847-.0291282.10502564-.0584205.21062564-.0982974.31171282-.096.2432-.0150975.3713641.2301538.46285128.3172923.11831795.6418872.24459487.9224205.42953846.9848616.64918974 1.2618667 1.64012308.7698872 2.71614359-.4926359 1.07741539-1.3394872 1.83007179-2.3704615 2.34642049-3.05025646 1.5277949-6.11052312 1.5208205-9.13887184-.075241-.3676718-.1938051-.70104615-.4780308-1.00077949-.7710359-1.01784615-.99487179-1.25965128-2.22170256-.74510769-3.50022564 1.01046154-2.51085128 2.83848205-4.26002051 5.33234872-5.2988718.32927179-.13718974.71704615-.17706666 1.07913846-.18330256zm-.3201641 3.75524103c-1.53403077.10002051-2.94925129.53636923-4.04332308 1.69657435-1.11581539 1.18317949-.96557949 2.72278975.35897436 3.67253332.96574359.6924308 2.0643282.9512205 3.43704615.9308718 1.47437949.0007385 2.97353846-.5142974 3.99450261-1.4401641 1.4310564-1.29780512 1.2854153-3.04016409-.34133338-4.06752819-1.04287179-.65862565-2.20053333-.87097436-3.40586666-.79228718zm.92861538 1.51629948c1.18432821.54473846 1.56102564 1.80594872.84373333 2.8955077-.55351794.84094359-1.38018461 1.19269739-2.16631794 1.22978459-1.36205129-.0027897-2.2300718-.6505025-2.43692308-1.69042049-.11651282-.58592821.08246154-1.09973334.42412308-1.56512821.73001025-.99446154 2.22309743-1.38133333 3.33538461-.86974359zm-2.03038359 1.57000205c-.46403248 0-.84020513.37617265-.84020513.84020513s.37617265.84020511.84020513.84020511.84020513-.37617263.84020513-.84020511-.37617265-.84020513-.84020513-.84020513zm1.33568021-.32534435c-.20301421 0-.36758974.16457554-.36758974.36758975 0 .2030142.16457553.36758974.36758974.36758974s.36758975-.16457554.36758975-.36758974c0-.20301421-.16457554-.36758975-.36758975-.36758975zm9.06364694-4.77256744c.0729436.5379282-.0067282 1.10744615-.0864 1.65210256-.0678564.46416411-.3425641.64057436-.6951384.56377436-.3332923-.07269743-.4496411-.35331282-.3442052-.82986666.3776-1.70633847-.5059282-3.25005129-2.1272615-3.70108718-.2606769-.07253334-1.2379897-.07778462-1.4547692-.05891282-.334359.02921025-.5688616-.11265641-.6171077-.45202052-.0488205-.34330256.1612307-.56041025.4707282-.61677948 2.327959-.42387693 4.5335795 1.08053333 4.8541538 3.44278974zm-2.0933415.69724718c-.0162462.09107692-.0009846.32361026-.1020718.48196923-.0998564.15647179-.3173744.33066667-.4832.33058464-.2429538-.00024618-.398359-.21243079-.3705436-.49206156.0107487-.1084718.0294564-.21612308.0378256-.32467693.0519385-.67675897-.4994461-1.20623589-1.1790769-1.13403077-.3481436.03700513-.6360615-.13390769-.6316307-.40918974.0052512-.32853333.2157948-.46293333.532841-.49608205 1.2018051-.12578462 2.1866666.73485128 2.1958564 2.04348718z" fill-rule="evenodd" transform="translate(0 2)"/></svg>

<?xml version="1.0" encoding="UTF-8"?>
<svg width="16px" height="16px" viewBox="0 0 16 16" version="1.1" xmlns="http://www.w3.org/2000/svg" xmlns:xlink="http://www.w3.org/1999/xlink">
    <g id="Symbols/Social-Icons/Mono/SinaWeibo-" stroke="none" stroke-width="1" fill="none" fill-rule="evenodd">
        <g id="Group-10" transform="translate(0.000000, 2.000000)" fill="#000000">
            <path d="M6.67321436,1.77056 C7.36498872,1.75866256 7.81003487,2.18344205 7.82710154,2.87858051 C7.83694769,3.27931897 7.74685538,3.68251897 7.69163487,4.17589333 C7.8980759,4.12789333 8.08999385,4.10549333 8.26500923,4.03886769 C8.98443487,3.76498051 9.71469128,3.54926769 10.4953272,3.61343179 C11.5330297,3.69868308 11.9705272,4.33334974 11.6927836,5.33257026 C11.6636554,5.4375959 11.6343631,5.5431959 11.5944862,5.64428308 C11.4984862,5.88748308 11.5793887,6.01564718 11.82464,6.10713436 C12.1419323,6.22545231 12.4665272,6.35172923 12.7470605,6.53667282 C13.7319221,7.18586256 14.0089272,8.1767959 13.5169477,9.25281641 C13.0243118,10.3302318 12.1774605,11.0828882 11.1464862,11.5992369 C8.09622974,13.1270318 5.03596308,13.1200574 2.00761436,11.5239959 C1.63994256,11.3301908 1.30656821,11.0459651 1.00683487,10.75296 C-0.0110112821,9.75808821 -0.25281641,8.53125744 0.261727179,7.25273436 C1.27218872,4.74188308 3.10020923,2.99271385 5.5940759,1.95386256 C5.92334769,1.81667282 6.31112205,1.7767959 6.67321436,1.77056 Z M6.35305026,5.52580103 C4.81901949,5.62582154 3.40379897,6.06217026 2.30972718,7.22237538 C1.19391179,8.40555487 1.34414769,9.94516513 2.66870154,10.8949087 C3.63444513,11.5873395 4.73302974,11.8461292 6.10574769,11.8257805 C7.58012718,11.826519 9.07928615,11.3114831 10.1002503,10.3856164 C11.5313067,9.08781128 11.3856656,7.34545231 9.75891692,6.31808821 C8.71604513,5.65946256 7.55838359,5.44711385 6.35305026,5.52580103 Z M7.28166564,7.04210051 C8.46599385,7.58683897 8.84269128,8.84804923 8.12539897,9.93760821 C7.57188103,10.7785518 6.74521436,11.1303056 5.95908103,11.1673928 C4.59702974,11.1646031 3.72900923,10.5168903 3.52215795,9.47697231 C3.40564513,8.8910441 3.60461949,8.37723897 3.94628103,7.9118441 C4.67629128,6.91738256 6.16937846,6.53051077 7.28166564,7.04210051 Z M5.25128205,8.61210256 C4.78724957,8.61210256 4.41107692,8.98827521 4.41107692,9.45230769 C4.41107692,9.91634017 4.78724957,10.2925128 5.25128205,10.2925128 C5.71531453,10.2925128 6.09148718,9.91634017 6.09148718,9.45230769 C6.09148718,8.98827521 5.71531453,8.61210256 5.25128205,8.61210256 Z M6.58696226,8.28675821 C6.38394805,8.28675821 6.21937252,8.45133375 6.21937252,8.65434796 C6.21937252,8.85736216 6.38394805,9.0219377 6.58696226,9.0219377 C6.78997647,9.0219377 6.95455201,8.85736216 6.95455201,8.65434796 C6.95455201,8.45133375 6.78997647,8.28675821 6.58696226,8.28675821 Z M15.6506092,3.51419077 C15.7235528,4.05211897 15.643881,4.62163692 15.5642092,5.16629333 C15.4963528,5.63045744 15.2216451,5.80686769 14.8690708,5.73006769 C14.5357785,5.65737026 14.4194297,5.37675487 14.5248656,4.90020103 C14.9024656,3.19386256 14.0189374,1.65014974 12.3976041,1.19911385 C12.1369272,1.12658051 11.1596144,1.12132923 10.9428349,1.14020103 C10.6084759,1.16941128 10.3739733,1.02754462 10.3257272,0.688180513 C10.2769067,0.344877949 10.4869579,0.127770256 10.7964554,0.0714010256 C13.1244144,-0.352475897 15.3300349,1.15193436 15.6506092,3.51419077 Z M13.5572677,4.21143795 C13.5410215,4.30251487 13.5562831,4.53504821 13.4551959,4.69340718 C13.3553395,4.84987897 13.1378215,5.02407385 12.9719959,5.02399182 C12.7290421,5.02374564 12.5736369,4.81156103 12.6014523,4.53193026 C12.612201,4.42345846 12.6309087,4.31580718 12.6392779,4.20725333 C12.6912164,3.53049436 12.1398318,3.00101744 11.460201,3.07322256 C11.1120574,3.11022769 10.8241395,2.93931487 10.8285703,2.66403282 C10.8338215,2.33549949 11.0443651,2.20109949 11.3614113,2.16795077 C12.5632164,2.04216615 13.5480779,2.90280205 13.5572677,4.21143795 Z" id="sina-weibo"></path>
        </g>
    </g>
</svg>
